resources/haticons/SVG/image1.svg

<!-- Generated by IcoMoon.io -->
<svg version="1.1" xmlns="http://www.w3.org/2000/svg" width="24" height="24" viewBox="0 0 24 24">
<title>image1</title>
<path d="M20.471 2.823h-16.942c-1.976 0-3.529 1.553-3.529 3.529v11.294c0 1.976 1.553 3.529 3.529 3.529h16.941c1.976 0 3.529-1.553 3.529-3.529v-11.293c0.001-1.977-1.552-3.53-3.528-3.53zM3.529 4.235h16.941c1.129 0 2.118 0.988 2.118 2.118v8.303c-3.213-0.137-5.066-1.169-6.777-2.091-1.835-0.988-3.67-1.976-6.777-1.976-3.441 0-6.137 1.833-7.624 3.127v-7.362c0.002-1.129 0.99-2.118 2.119-2.118zM20.471 19.765h-16.942c-1.129 0-2.118-0.988-2.118-2.118v-1.991c0.665-0.713 3.653-3.657 7.624-3.657 2.682 0 4.376 0.847 6.071 1.835 1.852 0.926 3.971 2.087 7.483 2.23v1.581c-0.001 1.13-0.989 2.118-2.118 2.118zM18.353 11.153c1.129 0 2.118-0.988 2.118-2.118s-0.988-2.118-2.118-2.118-2.118 0.988-2.118 2.118c-0.001 1.129 0.987 2.118 2.118 2.118zM18.353 8.33c0.423 0 0.706 0.282 0.706 0.706s-0.282 0.706-0.706 0.706-0.706-0.282-0.706-0.706 0.282-0.706 0.706-0.706z"></path>
</svg>

<svg xmlns="http://www.w3.org/2000/svg" width="24" height="24"><path d="M20.471 2.823H3.529A3.495 3.495 0 0 0 0 6.352v11.294a3.495 3.495 0 0 0 3.529 3.529H20.47a3.495 3.495 0 0 0 3.529-3.529V6.353a3.494 3.494 0 0 0-3.528-3.53zM3.529 4.235H20.47c1.129 0 2.118.988 2.118 2.118v8.303c-3.213-.137-5.066-1.169-6.777-2.091-1.835-.988-3.67-1.976-6.777-1.976-3.441 0-6.137 1.833-7.624 3.127V6.354c.002-1.129.99-2.118 2.119-2.118zm16.942 15.53H3.529c-1.129 0-2.118-.988-2.118-2.118v-1.991c.665-.713 3.653-3.657 7.624-3.657 2.682 0 4.376.847 6.071 1.835 1.852.926 3.971 2.087 7.483 2.23v1.581c-.001 1.13-.989 2.118-2.118 2.118zm-2.118-8.612c1.129 0 2.118-.988 2.118-2.118s-.988-2.118-2.118-2.118-2.118.988-2.118 2.118c-.001 1.129.987 2.118 2.118 2.118zm0-2.823c.423 0 .706.282.706.706s-.282.706-.706.706-.706-.282-.706-.706.282-.706.706-.706z"/></svg>
